X: 34
T:Auld Hoose
R:
C:trad.
S:First Ceilidh Collecton
Z:added by Alf 
M:3/4
L:1/4
K:G
GA|B3|A2 G|A2 G|E2 G|D2 E|G2 B|A3-|AG A|
B3|A2 G|A2G|E2 G|D2 B|B2A|G3-|GA B|
c2 B|c2 d|e2 e|d2 B|d2 B|A2 G|A3-|A G A|
B2 B|A2 G|A2 G|E2 G|D2 B|B2 A|G3-|G2||
